media/templates/flipcard-icon-dark.svg

<svg width="150" height="150" viewBox="0 0 150 150" fill="none" xmlns="http://www.w3.org/2000/svg">
<path d="M107.5 114.375C106.25 114.375 104.375 113.125 104.375 111.875C103.75 110 105 108.125 106.875 107.5C121.875 103.125 131.25 95 131.25 86.875C131.25 81.875 127.5 77.5 124.375 75C122.5 73.75 122.5 71.25 123.75 69.375C125 67.5 126.875 67.5 128.75 68.75C135 73.75 138.125 80 138.125 86.25C138.125 97.5 127.5 107.5 109.375 113.75C108.125 114.375 108.125 114.375 107.5 114.375Z" fill="#243866" stroke="#243866" stroke-width="4"/>
<path d="M81.25 110.625L66.25 98.75C64.375 97.5 62.5 97.5 61.25 99.375C60 101.25 60 103.125 61.875 105L70.625 111.875C56.875 111.25 44.375 108.75 34.375 103.75C25 99.375 19.375 93.125 19.375 86.875C19.375 81.25 24.375 76.25 28.125 73.75C30 72.5 30 70 29.375 68.75C28.125 66.875 26.25 66.875 25 67.5C16.875 73.125 12.5 79.375 12.5 86.875C12.5 96.25 19.375 104.375 31.875 110.625C41.25 115 53.125 118.125 65.625 118.75L62.5 121.25C60.625 122.5 60.625 125 61.25 126.875C61.875 128.125 63.125 128.75 64.375 128.75C65 128.75 65.625 128.125 66.25 128.125L81.25 116.875C82.5 116.25 82.5 115 83.125 113.75C82.5 112.5 81.875 111.25 81.25 110.625Z" fill="#243866" stroke="#243866" stroke-width="4"/>
<path d="M106.25 137.5H46.875C39.375 137.5 33.75 131.25 33.75 123.125V26.875C33.75 18.75 40 12.5 46.875 12.5H106.25C113.75 12.5 119.375 18.75 119.375 26.875V123.125C120 131.25 113.75 137.5 106.25 137.5ZM46.875 19.375C43.75 19.375 40.625 23.125 40.625 26.875V123.125C40.625 126.875 43.75 130 47.5 130H106.25C110 130 113.125 126.875 113.125 123.125V26.875C113.125 23.125 110 20 106.25 20H46.875V19.375Z" fill="#243866" stroke="#243866" stroke-width="8"/>
</svg>

<?xml version="1.0" encoding="UTF-8"?>
<svg id="Layer_1" xmlns="http://www.w3.org/2000/svg" version="1.1" viewBox="0 0 150 150">
  <!-- Generator: Adobe Illustrator 29.1.0, SVG Export Plug-In . SVG Version: 2.1.0 Build 142)  -->
  <defs>
    <style>
      .st0 {
        stroke-width: 4px;
      }

      .st0, .st1 {
        fill: #fff;
        stroke: #fff;
      }

      .st1 {
        stroke-width: 8px;
      }
    </style>
  </defs>
  <path class="st0" d="M107.5,114.4c-1.2,0-3.1-1.2-3.1-2.5-.6-1.9.6-3.8,2.5-4.4,15-4.4,24.4-12.5,24.4-20.6s-3.8-9.4-6.9-11.9c-1.9-1.2-1.9-3.8-.6-5.6s3.1-1.9,5-.6c6.2,5,9.4,11.2,9.4,17.5,0,11.2-10.6,21.2-28.8,27.5q-1.2.6-1.9.6Z"/>
  <path class="st0" d="M81.2,110.6l-15-11.9c-1.9-1.2-3.8-1.2-5,.6s-1.2,3.8.6,5.6l8.8,6.9c-13.8-.6-26.2-3.1-36.2-8.1-9.4-4.4-15-10.6-15-16.9s5-10.6,8.8-13.1,1.9-3.8,1.2-5c-1.2-1.9-3.1-1.9-4.4-1.2-8.1,5.6-12.5,11.9-12.5,19.4s6.9,17.5,19.4,23.8c9.4,4.4,21.2,7.5,33.8,8.1l-3.1,2.5c-1.9,1.2-1.9,3.8-1.2,5.6.6,1.2,1.9,1.9,3.1,1.9s1.2-.6,1.9-.6l15-11.2c1.2-.6,1.2-1.9,1.9-3.1-.6-1.2-1.2-2.5-1.9-3.1Z"/>
  <path class="st1" d="M106.2,137.5h-59.4c-7.5,0-13.1-6.2-13.1-14.4V26.9c0-8.1,6.2-14.4,13.1-14.4h59.4c7.5,0,13.1,6.2,13.1,14.4v96.2c.6,8.1-5.6,14.4-13.1,14.4ZM46.9,19.4c-3.1,0-6.2,3.8-6.2,7.5v96.2c0,3.8,3.1,6.9,6.9,6.9h58.8c3.8,0,6.9-3.1,6.9-6.9V26.9c0-3.8-3.1-6.9-6.9-6.9h-59.4v-.6Z"/>
</svg>
